svgs/regular/cloud.svg

<svg xmlns="http://www.w3.org/2000/svg" viewBox="0 0 640 512"><!--! Font Awesome Pro 6.4.2 by @fontawesome - https://fontawesome.com License - https://fontawesome.com/license (Commercial License) Copyright 2023 Fonticons, Inc. --><path d="M410.8 134.2c-19.3 8.6-42 3.5-55.9-12.5C332.8 96.1 300.3 80 264 80c-66.3 0-120 53.7-120 120c0 0 0 0 0 0s0 0 0 0l0 .2c0 20.4-12.8 38.5-32 45.3C74.6 258.7 48 294.3 48 336c0 53 43 96 96 96H504h3.3c.6-.1 1.3-.1 1.9-.2c46.2-2.7 82.8-41 82.8-87.8c0-36-21.6-67.1-52.8-80.7c-20.1-8.8-31.6-30-28.1-51.7c.6-3.8 .9-7.7 .9-11.7c0-39.8-32.2-72-72-72c-10.5 0-20.4 2.2-29.2 6.2zM512 479.8v.2h-8H464 144C64.5 480 0 415.5 0 336c0-62.7 40.1-116 96-135.8l0-.2c0-92.8 75.2-168 168-168c50.9 0 96.4 22.6 127.3 58.3C406.2 83.7 422.6 80 440 80c66.3 0 120 53.7 120 120c0 6.6-.5 13-1.5 19.3c48 21 81.5 68.9 81.5 124.7c0 72.4-56.6 131.6-128 135.8z"/></svg>

<svg xmlns="http://www.w3.org/2000/svg" viewBox="0 0 640 512"><!--! Font Awesome Pro 6.1.1 by @fontawesome - https://fontawesome.com License - https://fontawesome.com/license (Commercial License) Copyright 2022 Fonticons, Inc. --><path d="M512 479.8V480H144C64.47 480 0 415.5 0 336C0 273.3 40.07 219.1 96 200.2V200C96 107.2 171.2 32 264 32C314.9 32 360.4 54.6 391.3 90.31C406.2 83.68 422.6 80 440 80C506.3 80 560 133.7 560 200C560 206.6 559.5 213 558.5 219.3C606.5 240.3 640 288.3 640 344C640 416.4 583.4 475.6 512 479.8zM378.2 148.7L354.9 121.7C332.8 96.08 300.3 80 264 80C197.7 80 144 133.7 144 199.1L144 234.1L111.1 245.4C74.64 258.7 48 294.3 48 336C48 389 90.98 432 144 432H506.6L509.2 431.8C555.4 429.2 592 390.8 592 344C592 308 570.4 276.9 539.2 263.3L505.1 248.4L511.1 211.7C511.7 207.9 512 204 512 200C512 160.2 479.8 128 440 128C429.5 128 419.6 130.2 410.8 134.2L378.2 148.7zM144 199.1C144 199.1 144 199.1 144 199.1V199.1z"/></svg>
